X:1
T:St. Patrick's Day. Ru1.001
%%VWML:RutherfordVol1-2248-p1-0p1
Z:Transcription by Village Music Project, Steve Mansfield July 2015
F:http://www.village-music-project.org.uk/
F:http://www.vwml.org/record/RutherfordVol1/2248/p1
L:1/8
W:Cast off one Cu. and turn .| Cast up again & turn :|
W:Cross over two Cu. .|. Lead up to the Top Foot it &
W:Cast off :|
Q:3/8=90
K:G
|:GAG GAB | ded dBG | BAB BGE | EFE E2D |
GAG GAB | ded dBG | BAB BGE | E3 G3 :|
|: def g2e | f2d e2^c | def g2e | f2d e3 |
def g2e | f2d efg | def g2e | f2d e3 |
dBG GAB | ded dBG | BAB BGE | EFE E2D |
GAG GAB | ded dBG | BAB BGE | E3 G3 :|
T:Gates of Edinburgh. Ru1.002, The
B:Rutherford's Country Dances Vol 1, 1756
Z:village music project, Steve Mansfield July 2015
M:C
L:1/8
W:Hey contrary sides .| Hey on your own sides :|
W:Then the Man falls in at Bottom & the Wo. falls
W:In at Top Foot it all fix & turn your own Partner :||
W:Then the Wo. falls in of the Man's side & the Man on
W:the Woman's side foot it all 6 and turn y[ou]r Partner :|
Q:2/4=80
N:NB Rest added by transcriber to balance bar lengths
K:Dm
|:"NB" z2 | CDEF A2f2 | cAGF G2FD | F2f2 c2AG | F2D4 G2 |
B2 (3Bcd A2 (3ABc | dAGF G2FD | F2f2 c2AG | F2D4 :|
|: d2 | fefa fagf | gfga gbag | fefg fgaf | gfed c2fg |
agfa gfeg | fedc f2fg | agfe dcBA | F2D4 :|
